assets/GitHub.svg

<svg width="40" height="40" viewBox="0 0 40 40" fill="none" xmlns="http://www.w3.org/2000/svg">
<path d="M20 0C8.95667 0 0 8.955 0 20C0 28.8367 5.73 36.3333 13.6783 38.9783C14.6767 39.1633 15 38.5433 15 38.0167V34.2933C9.43667 35.5033 8.27833 31.9333 8.27833 31.9333C7.36833 29.6217 6.05667 29.0067 6.05667 29.0067C4.24167 27.765 6.195 27.7917 6.195 27.7917C8.20333 27.9317 9.26 29.8533 9.26 29.8533C11.0433 32.91 13.9383 32.0267 15.08 31.515C15.2583 30.2233 15.7767 29.34 16.35 28.8417C11.9083 28.3333 7.23833 26.6183 7.23833 18.9567C7.23833 16.7717 8.02 14.9883 9.29833 13.5883C9.09167 13.0833 8.40667 11.0483 9.49333 8.295C9.49333 8.295 11.1733 7.75833 14.995 10.345C16.59 9.90167 18.3 9.68 20 9.67167C21.7 9.68 23.4117 9.90167 25.01 10.345C28.8283 7.75833 30.505 8.295 30.505 8.295C31.5933 11.05 30.9083 13.085 30.7017 13.5883C31.985 14.9883 32.76 16.7733 32.76 18.9567C32.76 26.6383 28.0817 28.33 23.6283 28.825C24.345 29.445 25 30.6617 25 32.5283V38.0167C25 38.5483 25.32 39.1733 26.335 38.9767C34.2767 36.3283 40 28.8333 40 20C40 8.955 31.045 0 20 0Z" fill="white"/>
</svg>

<?xml version="1.0" encoding="utf-8"?>
<!-- Generator: Adobe Illustrator 26.5.2, SVG Export Plug-In . SVG Version: 6.00 Build 0)  -->
<svg version="1.1" id="Layer_1" xmlns="http://www.w3.org/2000/svg" xmlns:xlink="http://www.w3.org/1999/xlink" x="0px" y="0px"
	 viewBox="0 0 40 40" style="enable-background:new 0 0 40 40;" xml:space="preserve">
<path d="M20,0C9,0,0,9,0,20c0,8.8,5.7,16.3,13.7,19c1,0.2,1.3-0.4,1.3-1v-3.7c-5.6,1.2-6.7-2.4-6.7-2.4C7.4,29.6,6.1,29,6.1,29
	c-1.8-1.2,0.1-1.2,0.1-1.2c2,0.1,3.1,2.1,3.1,2.1c1.8,3.1,4.7,2.2,5.8,1.7c0.2-1.3,0.7-2.2,1.3-2.7c-4.4-0.5-9.1-2.2-9.1-9.9
	c0-2.2,0.8-4,2.1-5.4C9.1,13.1,8.4,11,9.5,8.3c0,0,1.7-0.5,5.5,2.1c1.6-0.4,3.3-0.7,5-0.7c1.7,0,3.4,0.2,5,0.7
	c3.8-2.6,5.5-2.1,5.5-2.1c1.1,2.8,0.4,4.8,0.2,5.3c1.3,1.4,2.1,3.2,2.1,5.4c0,7.7-4.7,9.4-9.1,9.9c0.7,0.6,1.4,1.8,1.4,3.7V38
	c0,0.5,0.3,1.2,1.3,1C34.3,36.3,40,28.8,40,20C40,9,31,0,20,0z"/>
</svg>
